X:1
T:Non date fede
T:Horatio Vecchi
T:Source : Canzonette a tre voci di H.Vecchi et di G.Capilupi da Modena---Venetia---Ang.Gardano---1597. Editor : André Vierendeels (03/03/17).
T:Notes Original clefs : C1, C1, F4 Lute accompaniment is not added in this edition         
T:Non date fede
T:©
T:©
C:Horatio Vecchi
Z:©
%%score [ 1 2 3 ]
L:1/8
Q:1/4=120
M:2/2
K:F
V:1 treble nm="Soprano 1" snm="S 1"
V:2 treble nm="Soprano 2" snm="S 2"
V:3 bass nm="Bass" snm="B"
V:1
"^1)" c4 c4- | c2 c2 c2 d2 | c4 c2 A2 | B2 c2 d3 d | d2 d2 d2 d2 | c4 c2 A2 | G6 G2 | G2 G2 G4- | %8
w: Non da-|* te fe- de'o'a-|man- ti, a|le chi- me- re|di cer- ti Po-|e- ti, ch'in-|se- gnan'|a se- guir|
w: A- mor|_ al- tro non|pro- vo, che'l|bel- lo di leg-|gia- dra Don- na|bel- la, que-|sta se|no'l sa- pe-|
 G2 G2 G2 A2 | B2 B2 c2 B2- | B2 A2 G4 |[M:2/4] A4 ::[M:2/2] z2 A2 G4- | G2 A2 F2 G2 | %14
w: _ d'a- mor le|re- ti, d'a- mor|_ le re-|ti,|ch'a- mor|_ non è ne|
w: * t'A- mor s'ap-|pel- la, A- mor|_ s'ap- pel-|la;|Quest' e'l|_ ve- ro Cu-|
 A2 A2 c2 B2- | B2 B2 A2 c2 | B2 A2 G2 G2 | A2 A2 z2 c2 | B2 G2 A2 A2 | z2 c2 B2 A2 | %20
w: fi- a, cre- de-|* te'à me che|que- st'è'u- na paz-|zi- a, è'u-|na paz- zi- a,|è'u- na paz-|
w: pi- do, e ogn'|_ al- tr'a- mo-|r'è va- no, è|va- no, e|me ne ri- do,|e me ne|
 G4 !fermata!A4 :| %21
w: zi- a.|
w: ri- do.|
V:2
"^2)""^1)" A4 A4- | A2 A2 A2 B2 | A4 A2 F2 | G2 A2 B3 B | B2 B2 B2 B2 | A4 A2 F2 | E6 E2 | %7
w: Non da-|* te fe- de'o'a-|man- ti, a|le chi- me- ne|di cer- ti Po-|e- ti, ch'in-|se- gnan'|
w: E s'el-|* la'è dun- que'A-|mo- re, u|son l'ar- mi (di-|re- te) o- ve|le tie- ne|do- ve|
 E2 E2 E4- | E2 E2 D2 E2 | G2 G2 F2 D2- | D2 F2 E4 |[M:2/4] F4 ::[M:2/2] z2 F2 E4- | E2 F2 D2 E2 | %14
w: a se- guir|_ d'a- mor le|re- ti, d'a- mor|_ le re-|ti,|ch'a- mor|_ non è ne|
w: so- no gli|_ dtra- li'e le|ca- the- n'e le|_ ca- the-|ne?|Gli sguar|_ di son le|
 F2 F2 C2 D2- | D2 E2 F2 F2 | D2 C2 D2 E2 | F2 F2 z2 F2 | F2 E2 F2 F2 | z2 A2 G2 F2 | %20
w: fi- a, cre- de-|* te'à ma che|que- st'è'u- na paz-|zi- a, è'u-|na paz- zi- a,|è'u- na paz-|
w: frec- ce e le|_ ca- the- ne|le sue bion- de|trec- ce, sue|bion- de trec- ce,|sue bion- de|
 E4 !fermata!F4 :| %21
w: zi- a.|
w: trec- ce|
V:3
"^3)""^1)""^4)""^5)" F,4 F,4- | F,2 F,2 F,2 B,,2 | F,4 F,2 F,2 | _E,2 C,2 B,,3 B,, | %4
w: Non da-|* te fe- de'o'a-|man- ti, a|le chi- me- ne|
w: L'ar- co|_ son le sue|ci- glia'e la|fa- cel- la con|
w: E cie-|* ca'u- di- te|co- me s'al-|tro di cor la|
 B,,2 C,2 D,2 E,2 | F,4 F,2 F,,2 | C,6 C,2 | C,2 C,2 C,4- | C,2 C,2 B,,2 A,,2 | %9
w: di cer- ti Po-|e- ti, ch'in-|se- gnan'|a se- guir|_ d'a- mor le|
w: cui, scal- da'e in|cen- de, so-|no'i be-|gl'oc- chi d'on-|* d'il sol ri-|
w: se- v'e non la|ve- de, e|perd' il|tem- po chi|_ pie- ta le|
 G,,2 G,,2 A,,2 B,,2- | B,,2 D,2 C,4 |[M:2/4] F,,4 ::[M:2/2] z2 F,2 C4- | C2 A,2 B,2 G,2 | %14
w: re- ti, d'a- mor|_ le re-|ti,|ch'a- mor|_ non è ne|
w: splen- de, e l'a-|* li pron-|te,|e bel-|* le so- no'i|
w: chie- de; E cie-||ca,|a me-|* ra- vi- glia|
 F,2 F,2 A,2 G,2- | G,2 G,2 F,2 F,,2 | G,,2 A,,2 B,,2 C,2 | F,,2 F,,2 z2 A,,2 | %18
w: fi- a, cre- de-|* te'à me ne|que- st'è'u- na paz-|zi- a è'u-|
w: pen- sier vo- lan-|* ti ol- tra|le stel- le, le|stel- le, ol-|
w: che le- scia'il buo-|* no'e al ri-|o dem- pre s'ap-|pi- glia, sem-|
 B,,2 C,2 F,,2 F,,2 | z2 A,,2 B,,2 D,2 | C,4 !fermata!F,,4 :| %21
w: na paz- zi- a,|è'u- na paz-|zi- a.|
w: tra le stel- le,|ol- tra le|stel- le.|
w: pre s'ap- pi- glia,|sem- pre s'ap-|pi- glia|

